X: 10495
T: Donnybrook Fair
R: jig
M: 6/8
K: Fmajor
FEF GFG|Add cAG|AGA FGA|GFA D2E|
FEF GFG|AdA cAG|AGA FGA|GFE F3:|
edc f2d|edc d2c|Add cAG|Add d2c|
Add cAG|AdA cAG|AGA FGA|GFE F3:|

